Numix-Light-GalliumOS/22/status/nm-device-wired-secure.svg

<svg viewBox="0 0 22 22" xmlns="http://www.w3.org/2000/svg">
 <path d="m 4 3 c -1.203 0 -2 0.797 -2 2 l 0 12 c 0 1.202 0.795 2 2 2 l 11 0 0 -2 -8 0 0 -2 -1 0 0 -2 -2 0 0 -6 c 0 -1.797 0 -2 1 -2 l 12 0 c 1 0 1 0.2 1 2 l 0 5 2 0 0 -7 c 0 -1.203 -0.797 -2 -2 -2 z" style="fill:#353535;fill-opacity:1;color:#bebebe"/>
 <path d="m 19 13 c -1.108 0 -2 0.911 -2 2.031 l 0 0.969 c -0.554 0 -1 0.446 -1 1 l 0 3 c 0 0.554 0.446 1 1 1 l 4 0 c 0.554 0 1 -0.446 1 -1 l 0 -3 c 0 -0.554 -0.446 -1 -1 -1 l 0 -0.969 c 0 -1.12 -0.892 -2.031 -2 -2.031 z m 0 1 c 0.554 0 1 0.442 1 1 l 0 1 -2 0 0 -1 c 0 -0.558 0.446 -1 1 -1 z" style="fill:#353535;fill-opacity:1"/>
</svg>

<?xml version="1.0" encoding="UTF-8" standalone="no"?>
<svg
   xmlns:dc="http://purl.org/dc/elements/1.1/"
   xmlns:cc="http://creativecommons.org/ns#"
   xmlns:rdf="http://www.w3.org/1999/02/22-rdf-syntax-ns#"
   xmlns:svg="http://www.w3.org/2000/svg"
   xmlns="http://www.w3.org/2000/svg"
   xmlns:sodipodi="http://sodipodi.sourceforge.net/DTD/sodipodi-0.dtd"
   xmlns:inkscape="http://www.inkscape.org/namespaces/inkscape"
   viewBox="0 0 22 22"
   id="svg3005"
   version="1.1"
   inkscape:version="0.91 r"
   width="100%"
   height="100%"
   sodipodi:docname="nm-device-wired-secure.svg">
  <metadata
     id="metadata3021">
    <rdf:RDF>
      <cc:Work
         rdf:about="">
        <dc:format>image/svg+xml</dc:format>
        <dc:type
           rdf:resource="http://purl.org/dc/dcmitype/StillImage" />
      </cc:Work>
    </rdf:RDF>
  </metadata>
  <defs
     id="defs3019" />
  <sodipodi:namedview
     pagecolor="#ffffff"
     bordercolor="#666666"
     borderopacity="1"
     objecttolerance="10"
     gridtolerance="10"
     guidetolerance="10"
     inkscape:pageopacity="0"
     inkscape:pageshadow="2"
     inkscape:window-width="1280"
     inkscape:window-height="998"
     id="namedview3017"
     showgrid="false"
     inkscape:zoom="21.454545"
     inkscape:cx="11.002371"
     inkscape:cy="9.843977"
     inkscape:window-x="0"
     inkscape:window-y="0"
     inkscape:window-maximized="1"
     inkscape:current-layer="svg3005" />
  <path
     inkscape:connector-curvature="0"
     id="path3011"
     d="m 20,15 -5,5 -5,-5 3,0 0,-7 4,0 0,7 3,0 z M 12,8 7,3 2,8 l 3,0 0,7 4,0 0,-7 3,0 z"
     style="fill:#353535;fill-rule:evenodd;fill-opacity:1" />
  <path
     style="fill:#353535;fill-opacity:1"
     d="M 19,13 C 17.892,13 17,13.910763 17,15.03125 L 17,16 C 16.446,16 16,16.446 16,17 L 16,20 C 16,20.554 16.446,21 17,21 L 21,21 C 21.554,21 22,20.554 22,20 L 22,17 C 22,16.446 21.554,16 21,16 L 21,15.03125 C 21,13.910764 20.108,13 19,13 z M 19,14 C 19.554,14 20,14.442363 20,15 L 20,16 L 18,16 L 18,15 C 18,14.442363 18.446,14 19,14 z"
     id="path3015" />
</svg>
